src/assets/icons/logo-nav.svg

<?xml version="1.0" encoding="UTF-8"?>
<svg width="141px" height="39px" viewBox="0 0 141 39" version="1.1" xmlns="http://www.w3.org/2000/svg" xmlns:xlink="http://www.w3.org/1999/xlink">
    <title># Theme/Logo</title>
    <g id="Components" stroke="none" stroke-width="1" fill="none" fill-rule="evenodd">
        <g id="Layout/Header-iOS" transform="translate(-117.000000, -38.000000)" fill="#FFFFFF" fill-rule="nonzero">
            <g id="Group" transform="translate(117.000000, 38.000000)">
                <path d="M48.5309935,12.5418502 C49.0383727,12.5418502 49.5039507,12.4999574 49.9277276,12.4161717 C50.3515045,12.332386 50.7406873,12.2139304 51.0952761,12.0608048 C51.449865,11.9076793 51.7770669,11.7227729 52.0768818,11.5060858 C52.3766968,11.2893987 52.653449,11.0452645 52.9071386,10.7736834 L52.9071386,10.7736834 L52.5611983,10.4009815 C52.5208386,10.3605333 52.4718303,10.3403091 52.4141736,10.3403091 C52.3795796,10.3403091 52.3493098,10.347532 52.3233643,10.3619778 C52.2974188,10.3764237 52.2700318,10.3952032 52.2412035,10.4183165 C51.9990452,10.6436711 51.7540042,10.8401341 51.5060803,11.0077054 C51.2581564,11.1752768 50.9900526,11.3168457 50.701769,11.4324122 C50.4134854,11.5479787 50.0978149,11.6346535 49.7547574,11.6924367 C49.4116999,11.75022 49.0210756,11.7791116 48.5828846,11.7791116 C47.8852383,11.7791116 47.2380416,11.653433 46.6412945,11.402076 C46.0445475,11.1507189 45.5270784,10.7895737 45.0888873,10.3186404 C44.6506963,9.84770709 44.3076388,9.27131936 44.0597149,8.58947724 C43.811791,7.90763512 43.687829,7.13333983 43.687829,6.26659137 C43.687829,5.4229562 43.8132324,4.66166214 44.0640391,3.98270917 C44.3148459,3.30375621 44.6651104,2.72592391 45.1148328,2.24921225 C45.5645553,1.7725006 46.1007628,1.40557709 46.7234553,1.14844171 C47.3461479,0.891306333 48.0293801,0.762738645 48.7731517,0.762738645 C49.1767488,0.762738645 49.5371033,0.793074841 49.8542152,0.853747233 C50.1713272,0.914419626 50.4509623,0.989537825 50.6931205,1.07910183 C50.9352787,1.16866584 51.1442844,1.26689733 51.3201374,1.37379631 C51.4959904,1.48069529 51.6458978,1.57892678 51.7698598,1.66849079 C51.8938217,1.75805479 51.9961624,1.83317299 52.0768818,1.89384539 C52.1576012,1.95451778 52.2239064,1.98485397 52.2757975,1.98485397 C52.3738139,1.98485397 52.4458848,1.95018404 52.4920102,1.88084416 L52.4920102,1.88084416 L52.7601139,1.49080735 C52.4891274,1.24811778 52.2123751,1.03431983 51.9298572,0.849413491 C51.6473392,0.664507153 51.3460829,0.509937011 51.0260881,0.385703065 C50.7060933,0.261469119 50.3615944,0.166126788 49.9925914,0.0996760729 C49.6235884,0.0332253576 49.2171085,0 48.7731517,0 C47.8852383,0 47.0737199,0.151680981 46.3385967,0.455042942 C45.6034736,0.758404903 44.9721325,1.18600081 44.4445735,1.73783066 C43.9170145,2.28966052 43.5076518,2.94983393 43.2164853,3.71835089 C42.9253189,4.48686786 42.7797357,5.33628135 42.7797357,6.26659137 C42.7797357,7.21423635 42.9209946,8.07520649 43.2035126,8.84950178 C43.4860305,9.62379707 43.8795376,10.2839705 44.3840339,10.830022 C44.8885302,11.3760735 45.4939258,11.7978911 46.2002206,12.0954748 C46.9065154,12.3930584 47.6834397,12.5418502 48.5309935,12.5418502 Z M60.8921825,12.5331827 C61.762799,12.5331827 62.5555789,12.3843909 63.2705222,12.0868073 C63.9854655,11.7892236 64.5995096,11.3674061 65.1126544,10.8213545 C65.6257992,10.275303 66.0236306,9.61657417 66.3061485,8.84516804 C66.5886664,8.07376191 66.7299254,7.21423635 66.7299254,6.26659137 C66.7299254,5.32472471 66.5886664,4.46808831 66.3061485,3.69668218 C66.0236306,2.92527605 65.6257992,2.26510264 65.1126544,1.71616195 C64.5995096,1.16722126 63.9854655,0.743959095 63.2705222,0.446375457 C62.5555789,0.148791819 61.762799,0 60.8921825,0 C60.0330974,0 59.2460831,0.1502364 58.5311398,0.450709199 C57.8161965,0.751181999 57.2021524,1.17444416 56.6890076,1.72049569 C56.1758628,2.26654722 55.77659,2.92527605 55.4911892,3.69668218 C55.2057885,4.46808831 55.0630881,5.32472471 55.0630881,6.26659137 C55.0630881,7.21423635 55.2057885,8.07376191 55.4911892,8.84516804 C55.77659,9.61657417 56.1758628,10.275303 56.6890076,10.8213545 C57.2021524,11.3674061 57.8161965,11.7892236 58.5311398,12.0868073 C59.2460831,12.3843909 60.0330974,12.5331827 60.8921825,12.5331827 Z M60.8921825,11.7617766 C60.1657078,11.7617766 59.5012141,11.6375427 58.8987014,11.3890748 C58.2961887,11.1406069 57.7772782,10.7794617 57.3419699,10.3056392 C56.9066617,9.8318167 56.5693699,9.25542898 56.3300945,8.57647601 C56.0908191,7.89752305 55.9711814,7.12756151 55.9711814,6.26659137 C55.9711814,5.41139955 56.0908191,4.64288259 56.3300945,3.96104046 C56.5693699,3.27919834 56.9066617,2.70136603 57.3419699,2.22754354 C57.7772782,1.75372105 58.2961887,1.39113128 58.8987014,1.13977423 C59.5012141,0.888417172 60.1657078,0.762738645 60.8921825,0.762738645 C61.6301885,0.762738645 62.3018893,0.888417172 62.9072849,1.13977423 C63.5126804,1.39113128 64.0301495,1.75372105 64.459692,2.22754354 C64.8892346,2.70136603 65.2222022,3.27919834 65.4585947,3.96104046 C65.6949873,4.64288259 65.8131835,5.41139955 65.8131835,6.26659137 C65.8131835,7.12756151 65.6949873,7.89752305 65.4585947,8.57647601 C65.2222022,9.25542898 64.8892346,9.8318167 64.459692,10.3056392 C64.0301495,10.7794617 63.5126804,11.1406069 62.9072849,11.3890748 C62.3018893,11.6375427 61.6301885,11.7617766 60.8921825,11.7617766 Z M73.4955297,12.4031705 L78.5462584,0.138679754 L77.8543777,0.138679754 C77.7736583,0.138679754 77.7059117,0.161793046 77.6511378,0.20801963 C77.5963639,0.254246215 77.5545628,0.309140284 77.5257344,0.372701838 L77.5257344,0.372701838 L73.3658021,10.5483288 C73.26202,10.802575 73.1784177,11.0857128 73.1149953,11.3977423 C73.0458073,11.0972695 72.9564393,10.8141316 72.8468916,10.5483288 L72.8468916,10.5483288 L68.6783107,0.372701838 C68.6494823,0.303361961 68.6091226,0.247023311 68.5572316,0.203685888 C68.5053405,0.160348465 68.4390353,0.138679754 68.3583159,0.138679754 L68.3583159,0.138679754 L67.6577868,0.138679754 L72.7085154,12.4031705 L73.4955297,12.4031705 Z M81.8265139,12.4031705 L81.8265139,0.138679754 L80.9357176,0.138679754 L80.9357176,12.4031705 L81.8265139,12.4031705 Z M90.3737108,12.4031705 C91.2443273,12.4031705 92.0371072,12.2616016 92.7520505,11.9784637 C93.4669939,11.6953259 94.0810379,11.2879541 94.5941827,10.7563484 C95.1073276,10.2247427 95.5051589,9.58045965 95.7876769,8.82349933 C96.0701948,8.066539 96.2114537,7.21423635 96.2114537,6.26659137 C96.2114537,5.32472471 96.0701948,4.47531122 95.7876769,3.71835089 C95.5051589,2.96139057 95.1073276,2.31710755 94.5941827,1.78550183 C94.0810379,1.25389611 93.4669939,0.84652433 92.7520505,0.563386499 C92.0371072,0.280248669 91.2443273,0.138679754 90.3737108,0.138679754 L90.3737108,0.138679754 L85.9110807,0.138679754 L85.9110807,12.4031705 L90.3737108,12.4031705 Z M90.3737108,11.6837692 L86.801877,11.6837692 L86.801877,0.858080976 L90.3737108,0.858080976 C91.1117168,0.858080976 91.7834176,0.97942576 92.3888132,1.22211533 C92.9942088,1.4648049 93.5116778,1.81728261 93.9412204,2.27954845 C94.370763,2.7418143 94.7037305,3.30808996 94.9401231,3.97837543 C95.1765156,4.64866091 95.2947119,5.41139955 95.2947119,6.26659137 C95.2947119,7.12756151 95.1765156,7.89318931 94.9401231,8.56347479 C94.7037305,9.23376026 94.370763,9.80003592 93.9412204,10.2623018 C93.5116778,10.7245676 92.9942088,11.0770453 92.3888132,11.3197349 C91.7834176,11.5624245 91.1117168,11.6837692 90.3737108,11.6837692 L90.3737108,11.6837692 Z" id="COVID"></path>
                <path d="M2.22168174,38.8281938 C2.46853527,38.8281938 2.67589223,38.7593755 2.84375263,38.6217387 C3.01161303,38.4841019 3.13010272,38.3268028 3.19922171,38.1498412 L3.19922171,38.1498412 L5.18392407,33.0474498 L14.7075331,33.0474498 L16.6922355,38.1498412 C16.7712286,38.3464652 16.8897183,38.5086799 17.0477046,38.6364855 C17.2056908,38.7642911 17.4130478,38.8281938 17.6697755,38.8281938 L17.6697755,38.8281938 L19.8914572,38.8281938 L11.404633,17.6960352 L8.48682426,17.6960352 L0,38.8281938 L2.22168174,38.8281938 Z M13.9077277,30.9828984 L5.9837295,30.9828984 L9.31625211,22.4002631 C9.41499352,22.144652 9.51620347,21.8472583 9.61988195,21.508082 C9.72356043,21.1689057 9.82970745,20.797778 9.938323,20.3946989 C10.14568,21.1910259 10.357974,21.8546317 10.5752051,22.3855164 L10.5752051,22.3855164 L13.9077277,30.9828984 Z M34.505186,38.8281938 L34.505186,36.4244661 L25.3222348,36.4244661 L25.3222348,17.6960352 L22.4488598,17.6960352 L22.4488598,38.8281938 L34.505186,38.8281938 Z M50.6296584,38.8281938 L50.6296584,36.4982001 L40.4395448,36.4982001 L40.4395448,29.2870169 L48.6893897,29.2870169 L48.6893897,27.0455039 L40.4395448,27.0455039 L40.4395448,20.026029 L50.6296584,20.026029 L50.6296584,17.6960352 L37.5513585,17.6960352 L37.5513585,38.8281938 L50.6296584,38.8281938 Z M57.7933478,38.8281938 L57.7933478,30.0096099 L59.9705959,30.0096099 C60.3655615,30.0096099 60.6617857,30.0612236 60.8592686,30.1644512 C61.0567514,30.2676788 61.239423,30.4372669 61.4072834,30.6732157 L61.4072834,30.6732157 L66.9170541,38.2235752 C67.1639077,38.6266543 67.5489992,38.8281938 68.0723286,38.8281938 L68.0723286,38.8281938 L70.619857,38.8281938 L64.4287706,30.4372669 C64.1522946,30.044019 63.8363221,29.7441675 63.480853,29.5377124 C64.3004067,29.3509196 65.0335617,29.0756461 65.680318,28.7118918 C66.3270742,28.3481375 66.875089,27.9081914 67.3243624,27.3920536 C67.7736359,26.8759157 68.1167623,26.2934173 68.3537417,25.6445583 C68.590721,24.9956992 68.7092107,24.2976842 68.7092107,23.5505132 C68.7092107,22.6558743 68.5561615,21.8472583 68.2500632,21.1246653 C67.9439648,20.4020723 67.4724746,19.7851647 66.8355925,19.2739424 C66.1987104,18.7627201 65.3914993,18.3719301 64.4139594,18.1015721 C63.4364194,17.8312142 62.2762078,17.6960352 60.9333246,17.6960352 L60.9333246,17.6960352 L54.9347839,17.6960352 L54.9347839,38.8281938 L57.7933478,38.8281938 Z M60.8000237,27.9303116 L57.7933478,27.9303116 L57.7933478,19.952295 L60.9333246,19.952295 C62.5823062,19.952295 63.8239794,20.2718089 64.6583444,20.9108368 C65.4927093,21.5498646 65.9098917,22.4985751 65.9098917,23.7569684 C65.9098917,24.3763338 65.8012762,24.9416277 65.5840451,25.4528499 C65.366814,25.9640722 65.0434359,26.4040182 64.6139107,26.7726881 C64.1843856,27.141358 63.651182,27.4264628 63.0142999,27.6280023 C62.3774178,27.8295419 61.6393257,27.9303116 60.8000237,27.9303116 L60.8000237,27.9303116 Z M80.4199421,38.8281938 L80.4199421,20.099763 L87.277533,20.099763 L87.277533,17.6960352 L70.6593536,17.6960352 L70.6593536,20.099763 L77.546567,20.099763 L77.546567,38.8281938 L80.4199421,38.8281938 Z" id="ALERT"></path>
                <path d="M103.556012,39 L103.556012,27.3961855 C103.556012,27.0792226 103.546115,26.7399732 103.526322,26.3784374 C103.506528,26.0169015 103.481786,25.6479369 103.452096,25.2715434 L103.452096,25.2715434 L113.650711,38.1679723 C113.898131,38.4849353 114.155446,38.7028473 114.422659,38.8217084 C114.689872,38.9405695 115.016465,39 115.402439,39 L115.402439,39 L118.015184,39 L118.015184,17.3524229 L113.591331,17.3524229 L113.591331,28.807661 C113.591331,29.1543392 113.601228,29.5233039 113.621021,29.914555 C113.640815,30.3058061 113.670505,30.7094386 113.710092,31.1254524 L113.710092,31.1254524 L103.437251,18.12502 C103.298696,17.9566335 103.174987,17.8229147 103.066122,17.7238638 C102.957258,17.6248129 102.843445,17.5480485 102.724684,17.4935705 C102.605923,17.4390925 102.472316,17.4019484 102.323865,17.3821382 C102.175414,17.362328 101.992323,17.3524229 101.774595,17.3524229 L101.774595,17.3524229 L99.1321586,17.3524229 L99.1321586,39 L103.556012,39 Z M132.355595,39 L132.355595,30.7688691 L140.193833,17.3524229 L135.740289,17.3524229 C135.532457,17.3524229 135.341944,17.3846145 135.168751,17.4489975 C134.995557,17.5133806 134.842157,17.5975739 134.708551,17.7015774 C134.574945,17.8055808 134.456184,17.9219657 134.352268,18.0507318 C134.248352,18.179498 134.166703,18.3082642 134.107323,18.4370304 L134.107323,18.4370304 L131.078913,24.7366685 C130.841391,25.2319231 130.618713,25.6925098 130.410881,26.1184287 C130.203049,26.5443477 130.024908,26.9702666 129.876456,27.3961855 C129.718108,26.9801717 129.535018,26.5592053 129.327186,26.1332864 C129.119354,25.7073674 128.891728,25.2418281 128.644309,24.7366685 L128.644309,24.7366685 L125.586209,18.4370304 C125.427861,18.1200675 125.220029,17.8600588 124.962713,17.6570045 C124.705397,17.4539501 124.35901,17.3524229 123.923553,17.3524229 L123.923553,17.3524229 L119.499699,17.3524229 L127.337936,30.7688691 L127.337936,39 L132.355595,39 Z" id="NY"></path>
            </g>
        </g>
    </g>
</svg>

<svg width="141" height="39" xmlns="http://www.w3.org/2000/svg"><g fill="#FFF" fill-rule="nonzero"><path d="M48.531 12.542c.507 0 .973-.042 1.397-.126a5.753 5.753 0 001.167-.355c.355-.153.682-.338.982-.555.3-.217.576-.46.83-.732l-.346-.373a.2.2 0 00-.147-.06.184.184 0 00-.09.021.599.599 0 00-.083.056 6.083 6.083 0 01-.735.59c-.248.167-.516.309-.804.424a4.587 4.587 0 01-.947.26 7.109 7.109 0 01-1.172.087 4.95 4.95 0 01-1.942-.377 4.462 4.462 0 01-1.552-1.083c-.438-.471-.781-1.048-1.03-1.73-.247-.681-.371-1.456-.371-2.322 0-.844.125-1.605.376-2.284a5.03 5.03 0 011.05-1.734c.45-.476.987-.843 1.61-1.1a5.32 5.32 0 012.05-.386c.403 0 .763.03 1.08.09.317.061.597.137.84.226.241.09.45.188.626.295.176.107.326.205.45.294.124.09.226.165.307.226.08.06.147.09.199.09.098 0 .17-.034.216-.103l.268-.39a6.96 6.96 0 00-.83-.642 4.851 4.851 0 00-.904-.463A5.585 5.585 0 0049.993.1a6.9 6.9 0 00-1.22-.1c-.888 0-1.7.152-2.434.455a5.475 5.475 0 00-1.894 1.283 5.802 5.802 0 00-1.229 1.98c-.29.769-.436 1.618-.436 2.549 0 .947.141 1.808.424 2.583.282.774.676 1.434 1.18 1.98.505.546 1.11.968 1.816 1.265.707.298 1.483.447 2.331.447zm12.361-.009c.87 0 1.664-.149 2.379-.446a5.278 5.278 0 001.842-1.266 5.715 5.715 0 001.193-1.976c.283-.771.424-1.63.424-2.578 0-.942-.141-1.799-.424-2.57a5.762 5.762 0 00-1.193-1.98A5.25 5.25 0 0063.27.446C62.556.148 61.763 0 60.892 0c-.859 0-1.646.15-2.36.45-.716.301-1.33.724-1.843 1.27a5.768 5.768 0 00-1.198 1.977c-.285.771-.428 1.628-.428 2.57 0 .947.143 1.807.428 2.578.286.772.685 1.43 1.198 1.976a5.278 5.278 0 001.842 1.266c.715.297 1.502.446 2.361.446zm0-.771a5.18 5.18 0 01-1.993-.373 4.328 4.328 0 01-1.557-1.083 4.952 4.952 0 01-1.012-1.73c-.24-.678-.359-1.448-.359-2.31 0-.855.12-1.623.36-2.305.238-.682.576-1.26 1.011-1.733a4.375 4.375 0 011.557-1.088 5.128 5.128 0 011.993-.377c.738 0 1.41.125 2.015.377a4.284 4.284 0 011.553 1.088c.43.473.762 1.051.999 1.733.236.682.354 1.45.354 2.306 0 .86-.118 1.63-.354 2.31a4.972 4.972 0 01-1 1.729c-.429.473-.946.835-1.552 1.083-.605.249-1.277.373-2.015.373zm12.604.641L78.546.14h-.692a.304.304 0 00-.203.069.464.464 0 00-.125.165l-4.16 10.175a4.752 4.752 0 00-.251.85c-.07-.3-.159-.584-.268-.85L68.678.373a.431.431 0 00-.12-.17.3.3 0 00-.2-.064h-.7l5.05 12.264h.788zm8.33 0V.14h-.89v12.264h.89zm8.548 0c.87 0 1.663-.141 2.378-.425a5.172 5.172 0 001.842-1.222 5.523 5.523 0 001.194-1.933c.282-.756.423-1.609.423-2.556 0-.942-.14-1.792-.423-2.549a5.523 5.523 0 00-1.194-1.932A5.172 5.172 0 0092.752.563C92.037.28 91.244.14 90.374.14H85.91v12.264h4.463zm0-.72h-3.572V.859h3.572c.738 0 1.41.121 2.015.364A4.245 4.245 0 0193.94 2.28c.43.462.763 1.028 1 1.698.236.67.354 1.433.354 2.289 0 .86-.118 1.626-.355 2.296-.236.67-.57 1.237-.999 1.7-.43.462-.947.814-1.552 1.057-.606.242-1.277.364-2.015.364zM2.222 38.828a.949.949 0 00.622-.206c.168-.138.286-.295.355-.472l1.985-5.103h9.524l1.984 5.103c.08.196.198.359.356.486.158.128.365.192.622.192h2.221l-8.486-21.132H8.487L0 38.828h2.222zm11.686-7.845H5.984L9.316 22.4c.099-.255.2-.553.304-.892.104-.34.21-.71.318-1.113.208.796.42 1.46.637 1.99l3.333 8.598zm20.597 7.845v-2.404h-9.183V17.696H22.45v21.132h12.056zm16.125 0v-2.33H40.44v-7.211h8.25v-2.241h-8.25v-7.02h10.19v-2.33H37.55v21.132H50.63zm7.163 0V30.01h2.178c.395 0 .69.051.888.154.198.104.38.273.548.51l5.51 7.55c.247.403.632.604 1.155.604h2.548l-6.191-8.39a3.029 3.029 0 00-.948-.9 8.16 8.16 0 002.2-.826 6.154 6.154 0 001.643-1.32 5.525 5.525 0 001.03-1.747 6.057 6.057 0 00.355-2.094c0-.895-.153-1.704-.459-2.426a4.697 4.697 0 00-1.414-1.851c-.637-.511-1.445-.902-2.422-1.172-.978-.27-2.138-.406-3.48-.406h-6v21.132h2.86zM60.8 27.93h-3.007v-7.978h3.14c1.65 0 2.891.32 3.725.959.835.639 1.252 1.588 1.252 2.846 0 .62-.109 1.185-.326 1.696-.217.511-.54.951-.97 1.32-.43.368-.963.653-1.6.855-.637.202-1.375.302-2.214.302zm19.62 10.898V20.1h6.858v-2.404H70.659V20.1h6.888v18.728h2.873zM103.556 39V27.396c0-.317-.01-.656-.03-1.018-.02-.361-.044-.73-.074-1.106l10.199 12.896c.247.317.504.535.772.654.267.119.593.178.98.178h2.612V17.352h-4.424v11.456c0 .346.01.715.03 1.107.02.39.05.794.09 1.21l-10.274-13a3.904 3.904 0 00-.37-.401 1.337 1.337 0 00-.342-.23 1.401 1.401 0 00-.401-.112 4.255 4.255 0 00-.55-.03h-2.642V39h4.424zm28.8 0v-8.231l7.838-13.417h-4.454c-.208 0-.398.033-.571.097a1.717 1.717 0 00-.46.253c-.134.104-.253.22-.357.349a1.858 1.858 0 00-.245.386l-3.028 6.3c-.238.495-.46.956-.668 1.381a11.68 11.68 0 00-.535 1.278 15.265 15.265 0 00-.549-1.263l-.683-1.396-3.058-6.3a2.266 2.266 0 00-.623-.78c-.258-.203-.604-.305-1.04-.305H119.5l7.838 13.417V39h5.018z"/></g></svg>
